X: 9984
T: Devil's Dream, The
R: hornpipe
M: 4/4
K: Amajor
|:fg|ag ae ag ae|ag ae fe dc|df Bf df Bf|df ag fe ce|
ag ae ag ae|ag ae fe dc|df ed cB AF|EA GB A2:|
|:ed|ce Ae ce Ae|ce Ae fe dc|df Bf df Bf|df Bf gf ed|
ce Ae ce Ae|ce Ae fe dc|df ed cB AF|EA GB A2:|
(3efg|ae/2x/2 ce/2x/2 ae/2x/2 ce/2x/2|ae/2x/2 ce/2x/2 ag/2x/2 fe/2x/2|bf/2x/2 df/2x/2 bf/2x/2 df/2x/2|bf/2x/2 df/2x/2 ba/2x/2 gf/2x/2|
ae/2x/2 ce/2x/2 ae/2x/2 ce/2x/2|ae/2x/2 ce/2x/2 fe dc|df ed cB AF|EA GB A2|
ea/2x/2|c'a/2x/2 ea/2x/2 c'a/2x/2 ea/2x/2|c'a/2x/2 gf/2x/2 ed/2x/2 eb/2x/2|d'b/2x/2 eb/2x/2 d'b/2x/2 eb/2x/2|d'b/2x/2 ag/2x/2 fd/2x/2
ea/2x/2|c'a/2x/2 ea/2x/2 c'a/2x/2 ea/2x/2|c'a/2x/2 de fe dc|df ed cB AF|EA GB A2|
|:(3cBA|eA/2x/2 fA/2x/2 gA/2x/2 aA/2x/2|gA/2x/2 fA/2x/2 eA/2x/2 (3dcB|fB/2x/2 gB/2x/2 aB/2x/2 bB/2x/2|aB/2x/2 gB/2x/2 fB/2x/2
(3cBA|eA/2x/2 fA/2x/2 gA/2x/2 aA/2x/2|gA/2x/2 de/2x/2 fe/2x/2 dc|df ed cB AF|EA GB A2:|

